X:2219
T:While shepherds
C:Traditional
O:Isle of Man
Z:Clague collection
B:Kiaull Vannin #219 
M:4/2  
K:D 
L:1/2
E|FG AD|EG FA/B/|cB A ^G|A2 A2|
dF/G/ AE/F/|GF EF/G/|AB A/F/E|D2-D||

